X:2413
T:Cale Smith's Pastime Reel
M:2/4
L:1/16
K:A
E2|A2Ac e2ce|fgaf fece|edBd dcAc|BcBA GEFG|!
A2Ac e2ce|fgaf fece|edBd dcAc|BEGB A2:|!
|:e2|a2ab c'aec|fefg aece|a2ab c'aec|eagb a2e2|!
a2ab c'aec|fefg aecA|A2Ac e2ce|fagb a2:|!


